!!!OTL: Gongchandang lingdao zanmen naogeming
!!!ARE: Asia, China,ÿHebei Zhengding
!! IV, 11
!!!SCT: C1909
!!!YEM: Copyright 1995, estate of Helmut Schaffrath.
**kern
*ICvox
*Ivox
*M2/4
*k[f#]
*G:
{8ee
8gg
8ee
8dd
=1
4.b
8dd
=2
8.ee
16gg
8ee
8dd
=3
2b}
=4
{4ee
8ee
8dd
=5
8b
8dd
8ee
8dd
=6
8b
8dd
8gg
8ee
=7
4.dd}
{16b
16a
=8
4g
8e
8g
=9
4a
4r
=10
4dd
8b
8dd
=11
4gg
8ee
8dd
=12
4b
8b
8a
=13
4g
8e
8g
=14
4.a
8b
=15
2dd}
=16
{8.ee
16dd
8ee
8gg
=17
8dd
8ee
8cc
8b
=18
4a
8dd
8b
=19
8a
8b
8g
8a
=20
4.e
8d
=21
4e
4r}
=22
{4.g
8e
=23
4.dd
8b
=24
4.a
8g
=25
4a
4r}
=26
{4ee
8gg
8ee
=27
4dd
8b
8dd
=28
8e
8g
8a
8b
=29
2g}
=30
{4dd
8b
8dd
=31
4g
8e
8g
=32
4dd
8dd
8b
=33
8a
8b
8g
8e
=34
4d
8d
8e
=35
8g
8e
8g
8a}
=36
{2dd
=37
4.a
8g
=38
4a
4r}
=39
{4g
8a
8b
=40
8g
8a
8g
8e
=41
4.d
8B
=42
2d}
==
!!!AGN: Xiaodiao, Lianhualao
!!!AMT: simple duple
!!!AIN: vox
!!!EED: Helmut Schaffrath
!!!EEV: 1.0
*-
